public/twt.svg

<svg fill="none" height="48" viewBox="0 0 48 48" width="48" xmlns="http://www.w3.org/2000/svg" xmlns:xlink="http://www.w3.org/1999/xlink"><linearGradient id="a" gradientUnits="userSpaceOnUse" x1="-3.23316" x2="58.3738" y1="10.5205" y2="32.8007"><stop offset=".00800497" stop-color="#38dbff"/><stop offset="1" stop-color="#243aff"/></linearGradient><circle cx="24" cy="24" fill="url(#a)" r="24"/><path d="m36 16.286c-.882.3907-1.8306.6513-2.8313.7747 1.0173-.604 1.8-1.5674 2.1673-2.7054-.952.558-2.0066.968-3.1286 1.184-.896-.95-2.174-1.5393-3.59-1.5393-2.72 0-4.9247 2.1853-4.9247 4.88 0 .3813.0447.7527.1287 1.1133-4.092-.2053-7.7214-2.1506-10.1494-5.1026-.4266.7213-.6666 1.566-.6666 2.4573 0 1.694.8673 3.1853 2.19 4.064-.8074-.0247-1.5674-.2493-2.2327-.6093v.0573c0 2.3673 1.698 4.3387 3.9487 4.7873-.4114.1127-.846.1754-1.294.1754-.318 0-.628-.036-.928-.09.6266 1.9346 2.4446 3.3486 4.5986 3.3906-1.6853 1.3067-3.808 2.0894-6.116 2.0894-.3986 0-.7886-.0227-1.174-.0694 2.1807 1.3807 4.77 2.19 7.5494 2.19 9.0566 0 14.0113-7.4373 14.0113-13.8893 0-.2113-.0067-.422-.0167-.63.9667-.6827 1.8-1.544 2.458-2.528z" fill="#fff"/></svg>

<svg width="48" height="48" viewBox="0 0 48 48" fill="none" xmlns="http://www.w3.org/2000/svg">
<circle cx="24" cy="24" r="24" fill="url(#paint0_linear_145_822)"/>
<path d="M36 16.286C35.118 16.6767 34.1694 16.9373 33.1687 17.0607C34.186 16.4567 34.9687 15.4933 35.336 14.3553C34.384 14.9133 33.3294 15.3233 32.2074 15.5393C31.3114 14.5893 30.0334 14 28.6174 14C25.8974 14 23.6927 16.1853 23.6927 18.88C23.6927 19.2613 23.7374 19.6327 23.8214 19.9933C19.7294 19.788 16.1 17.8427 13.672 14.8907C13.2454 15.612 13.0054 16.4567 13.0054 17.348C13.0054 19.042 13.8727 20.5333 15.1954 21.412C14.388 21.3873 13.628 21.1627 12.9627 20.8027C12.9627 20.8173 12.9627 20.8393 12.9627 20.86C12.9627 23.2273 14.6607 25.1987 16.9114 25.6473C16.5 25.76 16.0654 25.8227 15.6174 25.8227C15.2994 25.8227 14.9894 25.7867 14.6894 25.7327C15.316 27.6673 17.134 29.0813 19.288 29.1233C17.6027 30.43 15.48 31.2127 13.172 31.2127C12.7734 31.2127 12.3834 31.19 11.998 31.1433C14.1787 32.524 16.768 33.3333 19.5474 33.3333C28.604 33.3333 33.5587 25.896 33.5587 19.444C33.5587 19.2327 33.552 19.022 33.542 18.814C34.5087 18.1313 35.342 17.27 36 16.286Z" fill="white"/>
<defs>
<linearGradient id="paint0_linear_145_822" x1="-3.23316" y1="10.5205" x2="58.3738" y2="32.8007" gradientUnits="userSpaceOnUse">
<stop offset="0.00800497" stop-color="#38DBFF"/>
<stop offset="1" stop-color="#243AFF"/>
</linearGradient>
</defs>
</svg>
